X:445
T:Sheep in The Boat, The
R:jig
H:Related to "Anach Cuan", slow air#29
Z:hn-jig-445
M:6/8
L:1/8
K:Edor
BEF GFE | ~F3 def | edB BAF | AFE FED |
BEF G2A | FEF def | edB BAF | AFE E2A :|
B2e ede | fef d2f | edB BAF | AFE FED |
Bee ede | fef def | edB BAF | AFE E2A |
Bee ede | ~f3 def | edB BAF | AFE FED |
BEF G2A | ~F3 def | edB BAF | AFE E2A ||

